X:1
T:Derbyshire Morris Reel
T:Winster Reel
M:6/8
L:1/8
K:A
E|A>BA B2c|d>cB e>dc|A>BA B2c|eBG A2:||
A|a>gf e>dc|B>cd c>BA|a>gf e>dc|B>cd c2e|
a>gf e>dc|B>cd c>BA|a>gf e>dc|B>cB A2||

